X:1
T:Title
%%score { ( 1 3 ) | ( 2 4 ) }
L:1/8
M:4/4
K:G
V:1 treble nm="Grand Piano"
V:3 treble 
V:2 bass 
V:4 bass 
V:1
 z4 z2[Q:1/4=100] [B,D][B,D] | [B,G]>[B,G] [B,G]>[CA] [DB]2 [DG]2 | [CE]2 [EG]4 [DF][CE] | %3
 [B,D]>[B,D] [B,D]>[B,D] [DG]2 [DB]2 | A6 DD | [B,G]>[B,G] [B,G]>[CA] [DB]2 [DG]2 | %6
 [CE]2 [Ec]4 [Ec][Ec] | [DB]>[DB] B>G B2 A2 |[M:3/4] G6 |[M:1/4] Bc |[M:4/4] d>d d>d e2 d2 | %11
 B6 z2 | B>B B>B A2 [^CE]2 |[M:9/8] A6- A z z |[M:4/4] B>B B>B c2 [FB][Fc] | %15
 d>d d>d [Ee]2 [Ge][Ge] | [Gd]>[Gd] [Gd]>[B,G] [DGB]2 [CFA]2 |[M:3/4] G6 |] %18
V:2
 z4 z2 [G,,G,][G,,G,] | [G,,D,]>[G,,D,] [G,,D,]>[G,,D,] [G,,G,]2 [B,,G,]2 | %2
 [C,G,]2 [C,C]4 [C,G,][C,G,] | [G,,G,]>[G,,G,] [G,,G,]>[G,,G,] [B,,G,]2 [G,,G,]2 | %4
 [D,F,D]6 [D,F,C][D,F,C] | [G,,G,]>[G,,G,] [G,,G,]>[G,,G,] [G,,G,]2 [B,,G,]2 | %6
 [C,G,]2 [C,G,]4 [C,G,][C,G,] | [D,G,]>[C,G,] [D,G,D]>[D,G,B,] [D,G,D]2 [D,CD]2 | %8
[M:3/4][K:treble] [G,B,D]6 |[M:1/4] [G,G][G,A,G] | %10
[M:4/4] [G,B,G]>[G,B,G] [G,B,G]>[G,B,G] [G,CG]2 [G,B,G]2 | [G,DG]2 [G,D]2 [G,D]2 [G,B,][G,CG] | %12
 [G,DG]>[G,DG] [G,DG]>[G,DG][K:bass] [A,^CE]2 A,,2 | %13
[M:9/8] D,2 [E,^C]- [E,C] [D,=C]2- [D,C][G,B,][K:treble][A,CG] | %14
[M:4/4] [G,DG]>[G,DG] [G,DG]>[G,DG] [G,EG]2[K:bass] [D,D][D,D] | %15
 [G,B,=F]>[G,B,F] [G,B,F]>[G,B,F][K:bass] [C,C]2 [C,C][C,C] | [D,B,]>[D,B,] [D,B,]>D, D,2 D,2 | %17
[M:3/4] z2 C2 B,2 |] %18
V:3
 x8 | x8 | x8 | x8 | x8 | x8 | x8 | x8 |[M:3/4] x6 |[M:1/4] x2 |[M:4/4] x8 | z2 G2 G2 GA | x8 | %13
[M:9/8] [DF]2 G- G F2- FGA |[M:4/4] x8 | x8 | x8 |[M:3/4] B,2 E2 D2 |] %18
V:4
 x8 | x8 | x8 | x8 | x8 | x8 | x8 | x8 |[M:3/4][K:treble] x6 |[M:1/4] x2 |[M:4/4] x8 | x8 | %12
 x4[K:bass] x4 |[M:9/8] x8[K:treble] x |[M:4/4] x6[K:bass] x2 | x4[K:bass] x4 | x8 |[M:3/4] G,,6 |] %18

